X: 20922
M: 6/8
L: 1/8
K: F
V: 1 name="2"
z |\
cAf cAf | dBa bgf | egb cde | faf c2c |\
cAf cAf | dBa bgf | egb cde | f3- "^D.C."f2 |]
f/e/ |\
d^cd f2a | e3 gfe | d^cd e2c | A3 f2e |\
d^cd f2a | e3 gfe | d^cd e2c | d3- "^D.C."d2 |]


